icons/sqlite/sqlite-plain-wordmark.svg

<?xml version="1.0" encoding="UTF-8"?>
<svg xmlns="http://www.w3.org/2000/svg" xmlns:xlink="http://www.w3.org/1999/xlink" width="128px" height="128px" viewBox="0 0 128 128" version="1.1">
<g id="surface1">
<path style=" stroke:none;fill-rule:nonzero;fill:rgb(0%,0%,0%);fill-opacity:1;" d="M 48.648438 63.617188 C 46.945312 63.617188 45.554688 64.125 44.492188 65.140625 C 43.429688 66.15625 42.890625 67.488281 42.890625 69.121094 C 42.890625 69.964844 43.023438 70.738281 43.289062 71.445312 C 43.550781 72.152344 43.964844 72.804688 44.515625 73.398438 C 45.070312 73.992188 46.175781 74.796875 47.820312 75.824219 C 49.839844 77.066406 51.164062 78.074219 51.800781 78.859375 C 52.4375 79.644531 52.753906 80.46875 52.753906 81.328125 C 52.753906 82.476562 52.378906 83.398438 51.601562 84.085938 C 50.828125 84.773438 49.792969 85.121094 48.503906 85.121094 C 47.152344 85.121094 45.972656 84.640625 44.957031 83.6875 C 43.945312 82.730469 43.433594 81.46875 43.417969 79.882812 L 42.792969 79.882812 L 42.792969 85.632812 L 43.417969 85.632812 C 43.613281 85.089844 43.882812 84.808594 44.226562 84.808594 C 44.398438 84.808594 44.789062 84.921875 45.402344 85.140625 C 46.890625 85.675781 48.109375 85.933594 49.070312 85.933594 C 50.722656 85.933594 52.136719 85.347656 53.3125 84.164062 C 54.488281 82.980469 55.082031 81.550781 55.082031 79.882812 C 55.082031 78.589844 54.691406 77.4375 53.925781 76.4375 C 53.152344 75.433594 51.660156 74.261719 49.425781 72.921875 C 47.503906 71.757812 46.253906 70.816406 45.675781 70.078125 C 45.097656 69.339844 44.800781 68.527344 44.800781 67.632812 C 44.800781 66.664062 45.15625 65.886719 45.851562 65.304688 C 46.550781 64.726562 47.460938 64.4375 48.609375 64.4375 C 49.890625 64.4375 50.964844 64.824219 51.8125 65.59375 C 52.660156 66.371094 53.148438 67.441406 53.292969 68.820312 L 53.925781 68.820312 L 53.925781 63.835938 L 53.339844 63.835938 C 53.265625 64.09375 53.199219 64.253906 53.140625 64.328125 C 53.078125 64.402344 52.96875 64.4375 52.792969 64.4375 C 52.589844 64.4375 52.230469 64.351562 51.714844 64.183594 C 50.609375 63.808594 49.589844 63.613281 48.648438 63.613281 Z M 69.242188 63.617188 C 67.164062 63.617188 65.28125 64.109375 63.574219 65.097656 C 61.867188 66.082031 60.515625 67.445312 59.515625 69.1875 C 58.523438 70.925781 58.023438 72.777344 58.023438 74.746094 C 58.023438 77.390625 58.886719 79.75 60.621094 81.816406 C 62.363281 83.882812 64.441406 85.171875 66.855469 85.664062 C 67.410156 85.953125 68.199219 86.699219 69.234375 87.914062 C 70.398438 89.273438 71.382812 90.257812 72.195312 90.84375 C 73.003906 91.433594 73.882812 91.863281 74.808594 92.148438 C 75.730469 92.429688 76.730469 92.570312 77.8125 92.570312 C 79.121094 92.570312 80.296875 92.339844 81.328125 91.867188 L 81.097656 91.289062 C 80.496094 91.507812 79.855469 91.613281 79.183594 91.613281 C 78.273438 91.613281 77.347656 91.3125 76.421875 90.699219 C 75.496094 90.089844 74.339844 88.925781 72.960938 87.210938 C 72.3125 86.386719 71.863281 85.867188 71.613281 85.664062 C 74.253906 85.144531 76.429688 83.859375 78.125 81.796875 C 79.816406 79.734375 80.664062 77.382812 80.664062 74.746094 C 80.664062 71.613281 79.558594 68.984375 77.359375 66.839844 C 75.160156 64.695312 72.453125 63.617188 69.242188 63.617188 Z M 82.101562 63.617188 L 82.136719 64.296875 C 83.515625 64.296875 84.292969 64.703125 84.464844 65.527344 C 84.53125 65.824219 84.5625 66.371094 84.570312 67.152344 L 84.554688 82.152344 C 84.542969 83.273438 84.386719 83.988281 84.082031 84.296875 C 83.777344 84.605469 83.257812 84.800781 82.511719 84.875 L 82.476562 85.554688 L 96.273438 85.554688 L 96.628906 82.152344 L 95.996094 82.152344 C 95.816406 83.078125 95.40625 83.742188 94.746094 84.117188 C 94.089844 84.496094 92.921875 84.6875 91.246094 84.6875 L 89.9375 84.6875 C 88.425781 84.6875 87.550781 84.132812 87.320312 83.03125 C 87.273438 82.8125 87.257812 82.578125 87.253906 82.316406 L 87.304688 67.152344 C 87.304688 66.035156 87.445312 65.285156 87.738281 64.917969 C 88.03125 64.550781 88.5625 64.351562 89.332031 64.296875 L 89.296875 63.617188 Z M 69.46875 64.4375 C 71.808594 64.4375 73.726562 65.367188 75.203125 67.238281 C 76.683594 69.117188 77.414062 71.683594 77.414062 74.933594 C 77.414062 78.015625 76.671875 80.484375 75.183594 82.339844 C 73.695312 84.199219 71.710938 85.121094 69.242188 85.121094 C 66.875 85.121094 64.957031 84.167969 63.488281 82.25 C 62.015625 80.335938 61.285156 77.851562 61.285156 74.789062 C 61.285156 71.648438 62.023438 69.132812 63.507812 67.25 C 64.992188 65.375 66.980469 64.4375 69.46875 64.4375 Z M 101.191406 67.664062 C 100.855469 67.664062 100.597656 67.78125 100.40625 68.007812 C 100.210938 68.238281 100.152344 68.511719 100.21875 68.851562 C 100.285156 69.179688 100.46875 69.464844 100.761719 69.710938 C 101.050781 69.949219 101.367188 70.078125 101.703125 70.078125 C 102.023438 70.078125 102.277344 69.949219 102.453125 69.710938 C 102.628906 69.464844 102.683594 69.179688 102.617188 68.851562 C 102.546875 68.511719 102.371094 68.238281 102.097656 68.007812 C 101.824219 67.78125 101.515625 67.664062 101.191406 67.664062 Z M 110.289062 69.964844 C 109.71875 72.175781 108.476562 73.375 106.578125 73.566406 L 106.597656 74.199219 L 108.820312 74.199219 L 108.777344 81.691406 C 108.78125 82.976562 108.816406 83.828125 108.90625 84.261719 C 109.125 85.300781 109.804688 85.828125 110.933594 85.828125 C 112.566406 85.828125 114.28125 84.832031 116.070312 82.828125 L 115.53125 82.359375 C 114.234375 83.679688 113.09375 84.34375 112.089844 84.34375 C 111.476562 84.34375 111.097656 83.988281 110.953125 83.285156 C 110.914062 83.117188 110.898438 82.914062 110.898438 82.683594 L 110.921875 74.199219 L 114.3125 74.199219 L 114.28125 73.191406 L 110.933594 73.191406 L 110.933594 69.964844 Z M 123.410156 72.789062 C 121.511719 72.789062 119.972656 73.71875 118.765625 75.558594 C 117.574219 77.402344 117.203125 79.445312 117.675781 81.691406 C 117.949219 83.011719 118.503906 84.03125 119.34375 84.753906 C 120.1875 85.472656 121.253906 85.828125 122.527344 85.828125 C 123.714844 85.828125 125.371094 85.527344 126.066406 84.917969 C 126.761719 84.3125 127.40625 83.324219 128 81.972656 L 127.527344 81.472656 C 126.578125 83.222656 124.664062 84.105469 123.226562 84.105469 C 121.242188 84.105469 120.03125 83.015625 119.574219 80.839844 C 119.519531 80.558594 119.472656 80.261719 119.445312 79.949219 C 121.804688 79.574219 123.589844 78.910156 124.792969 77.949219 C 126 76.988281 127.210938 75.964844 126.984375 74.890625 C 126.851562 74.25 126.515625 73.746094 126.007812 73.367188 C 125.492188 72.988281 124.15625 72.789062 123.410156 72.789062 Z M 102.664062 72.867188 L 98.574219 73.8125 L 98.574219 74.546875 L 99.988281 74.371094 C 100.671875 74.371094 101.074219 74.679688 101.203125 75.300781 C 101.246094 75.511719 101.273438 75.800781 101.28125 76.167969 L 101.238281 82.898438 C 101.222656 83.824219 101.121094 84.367188 100.914062 84.53125 C 100.710938 84.691406 100.160156 84.773438 99.269531 84.773438 L 99.246094 85.410156 L 105.734375 85.410156 L 105.722656 84.773438 C 104.824219 84.773438 104.238281 84.703125 103.980469 84.5625 C 103.722656 84.425781 103.546875 84.171875 103.46875 83.785156 C 103.410156 83.507812 103.386719 83.027344 103.382812 82.363281 L 103.402344 72.867188 Z M 122.371094 74.113281 C 122.765625 74.113281 123.152344 74.265625 123.535156 74.566406 C 123.914062 74.871094 124.144531 75.207031 124.21875 75.570312 C 124.589844 77.355469 123.015625 78.59375 119.464844 79.28125 C 119.367188 77.976562 119.589844 76.792969 120.160156 75.726562 C 120.730469 74.65625 121.472656 74.113281 122.371094 74.113281 Z M 122.371094 74.113281 "/>
<path style=" stroke:none;fill-rule:nonzero;fill:rgb(0%,0%,0%);fill-opacity:1;" d="M 11.511719 76.5 C 11.507812 76.546875 11.507812 76.5625 11.503906 76.589844 C 11.507812 76.699219 11.511719 76.8125 11.511719 76.921875 C 11.515625 76.847656 11.515625 76.8125 11.515625 76.730469 C 11.515625 76.679688 11.511719 76.535156 11.511719 76.5 Z M 11.511719 76.5 "/>
<path style=" stroke:none;fill-rule:nonzero;fill:rgb(0%,0%,0%);fill-opacity:1;" d="M 47.710938 36.660156 C 45.296875 34.496094 42.382812 35.363281 39.496094 37.9375 C 39.054688 38.339844 38.628906 38.757812 38.21875 39.199219 C 33.289062 44.460938 28.714844 54.207031 27.292969 61.648438 C 27.84375 62.78125 28.277344 64.222656 28.5625 65.324219 C 28.707031 65.867188 28.835938 66.421875 28.949219 66.976562 C 28.949219 66.976562 28.902344 66.808594 28.722656 66.277344 L 28.605469 65.9375 C 28.582031 65.871094 28.554688 65.808594 28.527344 65.75 C 28.207031 64.996094 27.316406 63.40625 26.925781 62.714844 C 26.589844 63.710938 26.292969 64.640625 26.046875 65.480469 C 27.175781 67.5625 27.863281 71.128906 27.863281 71.128906 C 27.863281 71.128906 27.804688 70.894531 27.519531 70.089844 C 27.269531 69.375 26.015625 67.160156 25.714844 66.644531 C 25.207031 68.535156 25.007812 69.8125 25.1875 70.121094 C 25.542969 70.722656 25.878906 71.761719 26.171875 72.910156 C 26.84375 75.5 27.308594 78.652344 27.308594 78.652344 L 27.347656 79.175781 C 27.257812 81.332031 27.304688 83.492188 27.480469 85.640625 C 27.699219 88.339844 28.117188 90.652344 28.648438 91.894531 L 29.007812 91.695312 C 28.230469 89.253906 27.910156 86.050781 28.050781 82.363281 C 28.261719 76.722656 29.550781 69.917969 31.933594 62.828125 C 35.964844 52.125 41.550781 43.535156 46.664062 39.433594 C 42.003906 43.667969 35.695312 57.382812 33.804688 62.457031 C 31.691406 68.144531 30.191406 73.476562 29.289062 78.589844 C 30.847656 73.796875 35.886719 71.738281 35.886719 71.738281 C 35.886719 71.738281 38.355469 68.671875 41.242188 64.292969 C 39.515625 64.6875 36.671875 65.367188 35.722656 65.769531 C 34.320312 66.363281 33.941406 66.5625 33.941406 66.5625 C 33.941406 66.5625 38.488281 63.777344 42.386719 62.515625 C 47.75 54.015625 53.59375 41.941406 47.710938 36.660156 M 4.289062 37.9375 C 1.921875 37.945312 0.0078125 39.875 0 42.253906 L 0 81.328125 C 0.0078125 83.707031 1.925781 85.632812 4.289062 85.640625 L 26.308594 85.640625 C 26.144531 83.519531 26.101562 81.394531 26.1875 79.273438 C 26.171875 79.125 26.160156 78.941406 26.148438 78.800781 C 25.863281 76.921875 25.492188 75.054688 25.042969 73.207031 C 24.757812 72.101562 24.398438 71.09375 24.179688 70.722656 C 23.910156 70.257812 23.949219 69.992188 23.953125 69.703125 C 23.953125 69.421875 23.988281 69.128906 24.039062 68.796875 C 24.179688 67.96875 24.359375 67.148438 24.585938 66.335938 L 25.09375 66.273438 C 25.054688 66.191406 25.0625 66.117188 25.019531 66.042969 L 24.925781 65.148438 C 25.207031 64.207031 25.503906 63.269531 25.820312 62.339844 L 26.285156 62.292969 C 26.269531 62.257812 26.261719 62.203125 26.242188 62.167969 L 26.144531 61.425781 C 27.617188 53.710938 32.191406 43.914062 37.363281 38.394531 C 37.519531 38.230469 37.675781 38.09375 37.828125 37.9375 Z M 4.289062 37.9375 "/>
</g>
</svg>

<svg version="1.1" viewBox="0 0 128 128" xmlns="http://www.w3.org/2000/svg">
 <g>
  <path d="m48.648 63.617c-1.7031 0-3.0938 0.50781-4.1562 1.5234s-1.6016 2.3477-1.6016 3.9805c0 0.84375 0.13281 1.6172 0.39844 2.3242 0.26172 0.70703 0.67578 1.3594 1.2266 1.9531 0.55469 0.59375 1.6602 1.3984 3.3047 2.4258 2.0195 1.2422 3.3438 2.25 3.9805 3.0352s0.95312 1.6094 0.95312 2.4688c0 1.1484-0.375 2.0703-1.1523 2.7578-0.77344 0.6875-1.8086 1.0352-3.0977 1.0352-1.3516 0-2.5312-0.48047-3.5469-1.4336-1.0117-0.95703-1.5234-2.2188-1.5391-3.8047h-0.625v5.75h0.625c0.19531-0.54297 0.46484-0.82422 0.80859-0.82422 0.17188 0 0.5625 0.11328 1.1758 0.33203 1.4883 0.53516 2.707 0.79297 3.668 0.79297 1.6523 0 3.0664-0.58594 4.2422-1.7695 1.1758-1.1836 1.7695-2.6133 1.7695-4.2812 0-1.293-0.39062-2.4453-1.1562-3.4453-0.77344-1.0039-2.2656-2.1758-4.5-3.5156-1.9219-1.1641-3.1719-2.1055-3.75-2.8438s-0.875-1.5508-0.875-2.4453c0-0.96875 0.35547-1.7461 1.0508-2.3281 0.69922-0.57813 1.6094-0.86719 2.7578-0.86719 1.2812 0 2.3555 0.38672 3.2031 1.1562 0.84766 0.77734 1.3359 1.8477 1.4805 3.2266h0.63281v-4.9844h-0.58594c-0.074219 0.25781-0.14062 0.41797-0.19922 0.49219-0.0625 0.074219-0.17188 0.10938-0.34766 0.10938-0.20312 0-0.5625-0.085938-1.0781-0.25391-1.1055-0.375-2.125-0.57031-3.0664-0.57031zm20.594 0c-2.0781 0-3.9609 0.49219-5.668 1.4805-1.707 0.98438-3.0586 2.3477-4.0586 4.0898-0.99219 1.7383-1.4922 3.5898-1.4922 5.5586 0 2.6445 0.86328 5.0039 2.5977 7.0703 1.7422 2.0664 3.8203 3.3555 6.2344 3.8477 0.55469 0.28906 1.3438 1.0352 2.3789 2.25 1.1641 1.3594 2.1484 2.3438 2.9609 2.9297 0.80859 0.58984 1.6875 1.0195 2.6133 1.3047 0.92188 0.28125 1.9219 0.42187 3.0039 0.42187 1.3086 0 2.4844-0.23047 3.5156-0.70312l-0.23047-0.57813c-0.60156 0.21875-1.2422 0.32422-1.9141 0.32422-0.91016 0-1.8359-0.30078-2.7617-0.91406-0.92578-0.60938-2.082-1.7734-3.4609-3.4883-0.64844-0.82422-1.0977-1.3438-1.3477-1.5469 2.6406-0.51953 4.8164-1.8047 6.5117-3.8672 1.6914-2.0625 2.5391-4.4141 2.5391-7.0508 0-3.1328-1.1055-5.7617-3.3047-7.9062-2.1992-2.1445-4.9062-3.2227-8.1172-3.2227zm12.859 0 0.035157 0.67969c1.3789 0 2.1562 0.40625 2.3281 1.2305 0.066406 0.29688 0.097656 0.84375 0.10547 1.625l-0.015624 15c-0.011719 1.1211-0.16797 1.8359-0.47266 2.1445-0.30469 0.30859-0.82422 0.50391-1.5703 0.57812l-0.035157 0.67969h13.797l0.35547-3.4023h-0.63281c-0.17969 0.92578-0.58984 1.5898-1.25 1.9648-0.65625 0.37891-1.8242 0.57031-3.5 0.57031h-1.3086c-1.5117 0-2.3867-0.55469-2.6172-1.6562-0.046874-0.21875-0.0625-0.45312-0.066406-0.71484l0.050782-15.164c0-1.1172 0.14062-1.8672 0.43359-2.2344 0.29297-0.36719 0.82422-0.56641 1.5938-0.62109l-0.035156-0.67969zm-12.633 0.82031c2.3398 0 4.2578 0.92969 5.7344 2.8008 1.4805 1.8789 2.2109 4.4453 2.2109 7.6953 0 3.082-0.74219 5.5508-2.2305 7.4062-1.4883 1.8594-3.4727 2.7812-5.9414 2.7812-2.3672 0-4.2852-0.95312-5.7539-2.8711-1.4727-1.9141-2.2031-4.3984-2.2031-7.4609 0-3.1406 0.73828-5.6562 2.2227-7.5391 1.4844-1.875 3.4727-2.8125 5.9609-2.8125zm31.723 3.2266c-0.33594 0-0.59375 0.11719-0.78516 0.34375-0.19531 0.23047-0.25391 0.50391-0.1875 0.84375 0.066406 0.32813 0.25 0.61328 0.54297 0.85938 0.28906 0.23828 0.60547 0.36719 0.94141 0.36719 0.32031 0 0.57422-0.12891 0.75-0.36719 0.17578-0.24609 0.23047-0.53125 0.16406-0.85938-0.070313-0.33984-0.24609-0.61328-0.51953-0.84375-0.27344-0.22656-0.58203-0.34375-0.90625-0.34375zm9.0977 2.3008c-0.57031 2.2109-1.8125 3.4102-3.7109 3.6016l0.019531 0.63281h2.2227l-0.042968 7.4922c0.003906 1.2852 0.039062 2.1367 0.12891 2.5703 0.21875 1.0391 0.89844 1.5664 2.0273 1.5664 1.6328 0 3.3477-0.99609 5.1367-3l-0.53906-0.46875c-1.2969 1.3203-2.4375 1.9844-3.4414 1.9844-0.61328 0-0.99219-0.35547-1.1367-1.0586-0.039063-0.16797-0.054687-0.37109-0.054687-0.60156l0.023437-8.4844h3.3906l-0.03125-1.0078h-3.3477v-3.2266zm13.121 2.8242c-1.8984 0-3.4375 0.92969-4.6445 2.7695-1.1914 1.8438-1.5625 3.8867-1.0898 6.1328 0.27344 1.3203 0.82812 2.3398 1.668 3.0625 0.84375 0.71875 1.9102 1.0742 3.1836 1.0742 1.1875 0 2.8438-0.30078 3.5391-0.91016 0.69531-0.60547 1.3398-1.5938 1.9336-2.9453l-0.47266-0.5c-0.94922 1.75-2.8633 2.6328-4.3008 2.6328-1.9844 0-3.1953-1.0898-3.6523-3.2656-0.054688-0.28125-0.10156-0.57812-0.12891-0.89062 2.3594-0.375 4.1445-1.0391 5.3477-2 1.207-0.96094 2.418-1.9844 2.1914-3.0586-0.13281-0.64062-0.46875-1.1445-0.97656-1.5234-0.51562-0.37891-1.8516-0.57813-2.5977-0.57813zm-20.746 0.078126-4.0898 0.94531v0.73438l1.4141-0.17578c0.68359 0 1.0859 0.30859 1.2148 0.92969 0.042969 0.21094 0.070313 0.5 0.078125 0.86719l-0.042969 6.7305c-0.015625 0.92578-0.11719 1.4688-0.32422 1.6328-0.20312 0.16016-0.75391 0.24219-1.6445 0.24219l-0.023437 0.63672h6.4883l-0.011719-0.63672c-0.89844 0-1.4844-0.070313-1.7422-0.21094-0.25781-0.13672-0.43359-0.39062-0.51172-0.77734-0.058594-0.27734-0.082031-0.75781-0.085938-1.4219l0.019532-9.4961zm19.707 1.2461c0.39453 0 0.78125 0.15234 1.1641 0.45312 0.37891 0.30469 0.60938 0.64062 0.68359 1.0039 0.37109 1.7852-1.2031 3.0234-4.7539 3.7109-0.097656-1.3047 0.125-2.4883 0.69531-3.5547 0.57031-1.0703 1.3125-1.6133 2.2109-1.6133z"/>
  <path d="m11.512 76.5c-0.003907 0.046875-0.003907 0.0625-0.007813 0.089844 0.003906 0.10938 0.007813 0.22266 0.007813 0.33203 0.003906-0.074219 0.003906-0.10938 0.003906-0.19141 0-0.050781-0.003906-0.19531-0.003906-0.23047z"/>
  <path d="m47.711 36.66c-2.4141-2.1641-5.3281-1.2969-8.2148 1.2773-0.44141 0.40234-0.86719 0.82031-1.2773 1.2617-4.9297 5.2617-9.5039 15.008-10.926 22.449 0.55078 1.1328 0.98438 2.5742 1.2695 3.6758 0.14453 0.54297 0.27344 1.0977 0.38672 1.6523 0 0-0.046875-0.16797-0.22656-0.69922l-0.11719-0.33984c-0.023438-0.066406-0.050781-0.12891-0.078125-0.1875-0.32031-0.75391-1.2109-2.3438-1.6016-3.0352-0.33594 0.99609-0.63281 1.9258-0.87891 2.7656 1.1289 2.082 1.8164 5.6484 1.8164 5.6484s-0.058593-0.23438-0.34375-1.0391c-0.25-0.71484-1.5039-2.9297-1.8047-3.4453-0.50781 1.8906-0.70703 3.168-0.52734 3.4766 0.35547 0.60156 0.69141 1.6406 0.98438 2.7891 0.67188 2.5898 1.1367 5.7422 1.1367 5.7422l0.039062 0.52344c-0.089844 2.1562-0.042968 4.3164 0.13281 6.4648 0.21875 2.6992 0.63672 5.0117 1.168 6.2539l0.35937-0.19922c-0.77734-2.4414-1.0977-5.6445-0.95703-9.332 0.21094-5.6406 1.5-12.445 3.8828-19.535 4.0312-10.703 9.6172-19.293 14.73-23.395-4.6602 4.2344-10.969 17.949-12.859 23.023-2.1133 5.6875-3.6133 11.02-4.5156 16.133 1.5586-4.793 6.5977-6.8516 6.5977-6.8516s2.4688-3.0664 5.3555-7.4453c-1.7266 0.39453-4.5703 1.0742-5.5195 1.4766-1.4023 0.59375-1.7812 0.79297-1.7812 0.79297s4.5469-2.7852 8.4453-4.0469c5.3633-8.5 11.207-20.574 5.3242-25.855m-43.422 1.2773c-2.3672 0.007812-4.2812 1.9375-4.2891 4.3164v39.074c0.0078125 2.3789 1.9258 4.3047 4.2891 4.3125h22.02c-0.16406-2.1211-0.20703-4.2461-0.12109-6.3672-0.015625-0.14844-0.027344-0.33203-0.039062-0.47266-0.28516-1.8789-0.65625-3.7461-1.1055-5.5938-0.28516-1.1055-0.64453-2.1133-0.86328-2.4844-0.26953-0.46484-0.23047-0.73047-0.22656-1.0195 0-0.28125 0.035156-0.57422 0.085937-0.90625 0.14063-0.82812 0.32031-1.6484 0.54688-2.4609l0.50781-0.0625c-0.039062-0.082032-0.03125-0.15625-0.074219-0.23047l-0.09375-0.89453c0.28125-0.94141 0.57812-1.8789 0.89453-2.8086l0.46484-0.046875c-0.015625-0.035157-0.023437-0.089844-0.042968-0.125l-0.097657-0.74219c1.4727-7.7148 6.0469-17.512 11.219-23.031 0.15625-0.16406 0.3125-0.30078 0.46484-0.45703z"/>
 </g>
</svg>
